static/assets/images/icons/explorer.svg

<svg width="256" height="256" viewBox="0 0 256 256" fill="none" xmlns="http://www.w3.org/2000/svg">
<path d="M69.5657 123.224C69.5655 122.107 69.7859 121.001 70.2142 119.97C70.6426 118.938 71.2704 118.001 72.0616 117.213C72.8529 116.425 73.792 115.802 74.825 115.378C75.858 114.954 76.9645 114.738 78.081 114.744L92.1986 114.79C94.4497 114.79 96.6085 115.684 98.2002 117.277C99.7919 118.869 100.686 121.029 100.686 123.28V176.683C102.276 176.212 104.316 175.709 106.55 175.185C108.102 174.819 109.484 173.941 110.474 172.691C111.464 171.441 112.003 169.894 112.003 168.299V102.058C112.003 100.943 112.222 99.8385 112.649 98.8082C113.075 97.7779 113.701 96.8417 114.489 96.0531C115.277 95.2645 116.213 94.6389 117.243 94.2121C118.272 93.7853 119.376 93.5655 120.491 93.5654H134.637C136.888 93.5658 139.046 94.4604 140.638 96.0526C142.229 97.6448 143.124 99.8042 143.124 102.056V163.539C143.124 163.539 146.664 162.105 150.115 160.648C151.397 160.106 152.49 159.198 153.259 158.038C154.028 156.878 154.439 155.518 154.44 154.126V80.8281C154.44 79.7131 154.66 78.609 155.086 77.5789C155.512 76.5488 156.138 75.6129 156.926 74.8244C157.714 74.036 158.649 73.4106 159.679 72.9839C160.709 72.5572 161.812 72.3376 162.927 72.3376H177.072C179.324 72.3376 181.482 73.2321 183.074 74.8244C184.666 76.4166 185.56 78.5762 185.561 80.8281V141.185C197.824 132.294 210.254 121.6 220.117 108.741C221.548 106.874 222.495 104.683 222.873 102.361C223.252 100.039 223.05 97.6601 222.285 95.4356C215.612 75.9792 203.093 59.0599 186.442 46.9909C169.791 34.9219 149.82 28.2925 129.259 28.0091C73.8158 27.264 27.995 72.5385 28.0005 128.008C27.946 145.56 32.5256 162.816 41.276 178.03C42.4827 180.111 44.258 181.804 46.3934 182.911C48.5287 184.017 50.9354 184.491 53.3308 184.277C56.007 184.042 59.3388 183.709 63.2996 183.243C65.0236 183.047 66.6152 182.223 67.7714 180.929C68.9275 179.635 69.5673 177.96 69.5691 176.225V123.224" fill="black"/>
<path d="M69.258 208.869C84.1686 219.72 101.789 226.234 120.171 227.688C138.552 229.143 156.978 225.483 173.408 217.113C189.839 208.743 203.635 195.988 213.27 180.261C222.905 164.535 228.003 146.448 228 128.003C228 125.7 227.893 123.423 227.739 121.159C191.22 175.642 123.792 201.112 69.2573 208.871" fill="black"/>
</svg>

<svg xmlns="http://www.w3.org/2000/svg" fill="none" viewBox="0 0 256 256"><path fill="#000" d="M69.566 123.224a8.48 8.48 0 0 1 8.515-8.48l14.118.046a8.49 8.49 0 0 1 8.487 8.49v53.403c1.59-.471 3.63-.974 5.864-1.498a7.075 7.075 0 0 0 5.453-6.886v-66.241a8.49 8.49 0 0 1 5.24-7.846 8.5 8.5 0 0 1 3.248-.647h14.146a8.49 8.49 0 0 1 8.487 8.491v61.483s3.54-1.434 6.991-2.891a7.09 7.09 0 0 0 4.325-6.522V80.828a8.5 8.5 0 0 1 2.486-6.004 8.48 8.48 0 0 1 6.001-2.486h14.145c2.252 0 4.41.894 6.002 2.486a8.5 8.5 0 0 1 2.487 6.004v60.357c12.263-8.891 24.693-19.585 34.556-32.444a14.25 14.25 0 0 0 2.168-13.305 99.83 99.83 0 0 0-35.843-48.445 99.8 99.8 0 0 0-57.183-18.982c-55.443-.745-101.264 44.53-101.258 99.999a99.7 99.7 0 0 0 13.275 50.022 12.64 12.64 0 0 0 12.055 6.247 341 341 0 0 0 9.969-1.034 7.07 7.07 0 0 0 6.27-7.018v-53.001m-.312 85.645a99.91 99.91 0 0 0 104.15 8.244 99.96 99.96 0 0 0 39.862-36.852A100 100 0 0 0 228 128.003c0-2.303-.107-4.58-.261-6.844-36.519 54.483-103.947 79.953-158.482 87.712"/></svg>
